X:1
T:Schaff's mit mir, Gott
T:Schaff's mit mir, Gott
T:BWV 514
T:Johann Sebastian Bach?
C:Johann Sebastian Bach?
%%score 1 2
L:1/8
M:3/4
K:C
V:1 treble 
V:2 bass 
V:1
 c2 B2 c2 | (A2 B2) c2 | (F3 G/A/) G2 | E2 DE C2 | G2 A2 B2 | c4 d2 | BA A4 | G6 :| c2 d2 e2 | %9
w: Schaff's mit mir,|Gott, * nach|Dei- * * nem|Wil- * * len,|es bleibt Dir|Al- les|heim- * ge-|stellt;|Du bist mein|
w: du wirst mein|W"un- * schen|so * * er-|f"ul- * * len,|wie's Dei- ner|Weis- heit|wohl- * ge-|f"allt.||
 (A2 B2) c2 | d3 e/f/ e2 | d6 | ef/g/ (fe) (dc) | (A2 B2) c2 | f2 d4 | c6 |] %16
w: Va- * ter,|du * * wirst|mich|ver- * * sor- * gen, *|dar- * auf|hof- fe|ich!|
w: |||||||
V:2
 !fermata!C,2 D,2 E,2 | F,4 E,2 | D,2 G,2 G,,2 | C,2 G,,2 C,,2 | C,4 B,,2 | A,,2 G,,2 ^F,,2 | %6
 G,,2 D,2 D,,2 | G,,2 G,=F,E,D, :| E,2 F,E,D,C, | F,4 E,2 | B,,2 G,,2 C,2 | G,,2 G,A,B,G, | %12
 C2 C,2 E,2 | F,2 E,D,E,C, | A,2 F,2 G,2 | C,6 |] %16

